images/logo.svg

<svg width="24" height="24" viewBox="0 0 24 24" fill="none" xmlns="http://www.w3.org/2000/svg">
<path d="M2.9579 15.0568L11.0405 1.9886L11.5205 1.48303L17.6973 5.6014L17.7396 8.08665L19.2471 10.5463L12.5873 21.1038L2.9579 15.0568Z" fill="#FCF1E0"/>
<path d="M16.2259 17.9097L5.58677 11.2616M8.52066 6.44905L19.1598 13.0971M7.97245 19.3982L16.7741 4.96051M20.3823 11.0919C18.1025 9.6673 17.207 8.55395 18.674 6.14767L11.4546 1.63647L2.65287 16.0742L13.292 22.7223L20.3823 11.0919Z" stroke="#FD9222" stroke-width="2" stroke-linecap="round" stroke-linejoin="round"/>
</svg>

<svg xmlns="http://www.w3.org/2000/svg" width="24" height="24" fill="none">
  <path fill="#FCF1E0" d="M2.958 15.057 11.04 1.989l.48-.506 6.177 4.118.043 2.486 1.507 2.46-6.66 10.557-9.63-6.047Z"/>
  <path stroke="#FD9222" stroke-linecap="round" stroke-linejoin="round" stroke-width="2" d="m16.226 17.91-10.64-6.648m2.935-4.813 10.639 6.648M7.972 19.398l8.802-14.437m3.608 6.13c-2.28-1.424-3.175-2.537-1.708-4.943l-7.22-4.512-8.801 14.438 10.639 6.648 7.09-11.63Z"/>
</svg>
